SF_Symbols/comb.fill.svg

<?xml version="1.0" encoding="UTF-8"?>
<svg xmlns="http://www.w3.org/2000/svg" xmlns:xlink="http://www.w3.org/1999/xlink" width="24" height="24" viewBox="0 0 24 24" version="1.1">
<g id="surface1">
<path style=" stroke:none;fill-rule:nonzero;fill:rgb(100%,100%,100%);fill-opacity:1;" d="M 1.15625 19.042969 L 5.84375 23.738281 C 6.011719 23.898438 6.207031 23.980469 6.4375 23.980469 C 6.671875 23.980469 6.875 23.898438 7.042969 23.738281 C 7.203125 23.574219 7.28125 23.371094 7.28125 23.136719 C 7.28125 22.90625 7.203125 22.710938 7.042969 22.550781 L 3.980469 19.480469 L 19.480469 3.980469 L 22.542969 7.042969 C 22.703125 7.207031 22.894531 7.296875 23.125 7.300781 C 23.355469 7.300781 23.546875 7.21875 23.707031 7.050781 C 23.875 6.886719 23.957031 6.6875 23.957031 6.457031 C 23.957031 6.230469 23.875 6.03125 23.707031 5.863281 L 19.019531 1.175781 C 18.269531 0.425781 17.449219 0.0546875 16.550781 0.0625 C 15.65625 0.0703125 14.828125 0.453125 14.074219 1.207031 L 1.1875 14.09375 C 0.429688 14.84375 0.046875 15.671875 0.0429688 16.574219 C 0.0351562 17.46875 0.40625 18.292969 1.15625 19.042969 Z M 18.238281 4.894531 L 17.261719 5.90625 L 20.5625 9.199219 C 20.703125 9.34375 20.867188 9.417969 21.0625 9.417969 C 21.257812 9.417969 21.421875 9.347656 21.550781 9.207031 C 21.691406 9.078125 21.761719 8.914062 21.761719 8.71875 C 21.765625 8.515625 21.703125 8.347656 21.5625 8.207031 Z M 16.175781 6.957031 L 15.199219 7.96875 L 18.5 11.261719 C 18.640625 11.398438 18.804688 11.46875 19 11.46875 C 19.195312 11.46875 19.359375 11.402344 19.488281 11.269531 C 19.628906 11.132812 19.699219 10.96875 19.699219 10.78125 C 19.703125 10.585938 19.640625 10.421875 19.5 10.28125 Z M 14.125 9.019531 L 13.144531 10.03125 L 16.4375 13.332031 C 16.578125 13.464844 16.742188 13.53125 16.9375 13.53125 C 17.132812 13.53125 17.296875 13.46875 17.425781 13.34375 C 17.566406 13.203125 17.636719 13.039062 17.636719 12.84375 C 17.640625 12.640625 17.578125 12.476562 17.4375 12.34375 Z M 12.074219 11.082031 L 11.082031 12.074219 L 14.386719 15.386719 C 14.523438 15.523438 14.691406 15.59375 14.886719 15.59375 C 15.078125 15.59375 15.242188 15.523438 15.375 15.386719 C 15.515625 15.253906 15.582031 15.089844 15.582031 14.894531 C 15.589844 14.695312 15.523438 14.527344 15.386719 14.394531 Z M 10.011719 13.144531 L 9.019531 14.136719 L 12.324219 17.457031 C 12.460938 17.589844 12.628906 17.65625 12.824219 17.65625 C 13.015625 17.65625 13.179688 17.589844 13.3125 17.457031 C 13.453125 17.320312 13.519531 17.152344 13.519531 16.957031 C 13.527344 16.757812 13.460938 16.589844 13.324219 16.457031 Z M 7.949219 15.207031 L 6.957031 16.199219 L 10.261719 19.519531 C 10.398438 19.652344 10.566406 19.71875 10.761719 19.71875 C 10.953125 19.71875 11.117188 19.652344 11.25 19.519531 C 11.382812 19.382812 11.449219 19.214844 11.449219 19.019531 C 11.453125 18.828125 11.390625 18.660156 11.261719 18.519531 Z M 5.886719 17.269531 L 4.894531 18.261719 L 8.199219 21.582031 C 8.335938 21.714844 8.503906 21.78125 8.699219 21.78125 C 8.890625 21.78125 9.054688 21.714844 9.1875 21.582031 C 9.328125 21.445312 9.394531 21.277344 9.394531 21.082031 C 9.402344 20.890625 9.335938 20.722656 9.199219 20.582031 Z M 5.886719 17.269531 "/>
</g>
</svg>

<svg xmlns="http://www.w3.org/2000/svg" width="24" height="24"><path style="stroke:none;fill-rule:nonzero;fill:#fff;fill-opacity:1" d="m1.156 19.043 4.688 4.695a.84.84 0 0 0 .593.242.85.85 0 0 0 .606-.242.844.844 0 0 0 .238-.601.808.808 0 0 0-.238-.586L3.98 19.48l15.5-15.5 3.063 3.062c.16.164.352.254.582.258.23 0 .422-.082.582-.25a.8.8 0 0 0 .25-.594.802.802 0 0 0-.25-.594L19.02 1.176C18.27.426 17.45.055 16.55.063c-.894.007-1.722.39-2.476 1.144L1.188 14.094c-.758.75-1.141 1.578-1.145 2.48-.008.895.363 1.719 1.113 2.469ZM18.238 4.895l-.976 1.011 3.3 3.293c.141.145.305.219.5.219.196 0 .36-.07.489-.211a.642.642 0 0 0 .21-.488.674.674 0 0 0-.198-.512Zm-2.062 2.062-.977 1.012 3.301 3.293a.69.69 0 0 0 .5.207c.195 0 .36-.067.488-.2a.662.662 0 0 0 .211-.488.648.648 0 0 0-.199-.5ZM14.125 9.02l-.98 1.011 3.293 3.301a.7.7 0 0 0 .5.2.656.656 0 0 0 .496-.196.67.67 0 0 0 .203-.492.635.635 0 0 0-.2-.5Zm-2.05 2.062-.993.992 3.305 3.313c.133.136.312.21.5.207.191 0 .355-.07.488-.207a.647.647 0 0 0 .207-.492.632.632 0 0 0-.195-.5Zm-2.063 2.063-.992.992 3.304 3.32c.137.133.305.2.5.2a.657.657 0 0 0 .489-.2.67.67 0 0 0 .207-.5.632.632 0 0 0-.196-.5Zm-2.063 2.062-.992.992 3.305 3.32c.136.133.304.2.5.2a.683.683 0 0 0 .688-.7.673.673 0 0 0-.188-.5ZM5.887 17.27l-.992.992 3.304 3.32c.137.133.305.2.5.2a.657.657 0 0 0 .489-.2.67.67 0 0 0 .207-.5.665.665 0 0 0-.196-.5Zm0 0"/></svg>
